!!!COM: Palestrina, Giovanni Perluigi da
!!!OPR: Missa Regina coeli (1601)
!!!OTL: Agnus II
**kern	**kern	**kern	**kern	**kern
*Ibass	*Itenor	*Itenor	*Icalto	*Icant
!Bassus	!Tenor 2	!Tenor 1	!Altus	!Cantus
*clefF4	*clefGv2	*clefGv2	*clefG2	*clefG2
*k[b-]	*k[b-]	*k[b-]	*k[b-]	*k[b-]
*F:ion	*F:ion	*F:ion	*F:ion	*F:ion
*M4/2	*M4/2	*M4/2	*M4/2	*M4/2
=1	=1	=1	=1	=1
0r	0r	0r	0r	1f
.	.	.	.	1g
=2	=2	=2	=2	=2
1F	1r	0r	0r	1a
1G	1B-	.	.	2.g
.	.	.	.	4f
=3	=3	=3	=3	=3
1A	1c	0r	0r	4e
.	.	.	.	4c
.	.	.	.	1cc
2.G	1d	.	.	.
.	.	.	.	2b-
4F	.	.	.	.
=4	=4	=4	=4	=4
4E	2.c	0r	0r	2cc
4C	.	.	.	.
1F	.	.	.	1a
.	4B-	.	.	.
.	4A	.	.	.
.	4F	.	.	.
2E	[2c	.	.	2g
=5	=5	=5	=5	=5
1D	2c]	1F	0r	2a
.	2B-	.	.	4g
.	.	.	.	4f
2.C	[1c	1G	.	[1e
4BB-	.	.	.	.
=6	=6	=6	=6	=6
2AA	1c]	1A	1r	2e]
2FF	.	.	.	2f
1GG	2r	2.G	1B-	1d
.	[2G	.	.	.
.	.	4F	.	.
=7	=7	=7	=7	=7
1C	2G]	4E	1c	1e
.	.	4C	.	.
.	2A	1c	.	.
1r	1G	.	1d	2.g
.	.	2B-	.	.
.	.	.	.	4f
=8	=8	=8	=8	=8
0r	2A	0c	2.c	4e
.	.	.	.	4c
.	2E	.	.	2g
.	.	.	4B-	.
.	1F	.	4A	1a
.	.	.	4F	.
.	.	.	[2f	.
=9	=9	=9	=9	=9
1r	1C	2r	2f]	1g
.	.	1c	2e	.
1F	1r	.	1f	2a
.	.	[2F	.	2cc
=10	=10	=10	=10	=10
1BB-	1r	2F]	1d	4b-
.	.	.	.	4a
.	.	1G	.	4g
.	.	.	.	4f
1C	1c	.	1r	1e
.	.	2A	.	.
=11	=11	=11	=11	=11
1D	1F	2B-	1f	1d
.	.	2A	.	.
2E-	2G	2G	1B-	1r
2D	[2B-	2F	.	.
=12	=12	=12	=12	=12
1C	2B-]	2G	1c	1cc
.	2A	2C	.	.
1BB-	2B-	1r	2d	1f
.	2d	.	[2f	.
=13	=13	=13	=13	=13
0r	0c	2r	2f]	1g
.	.	2c	2e	.
.	.	1F	1f	1a
=14	=14	=14	=14	=14
0r	0r	2G	1e	2b-
.	.	2A	.	2a
.	.	2B-	2d	2g
.	.	2A	[2c	2f
=15	=15	=15	=15	=15
0r	1c	4A	4c]	2e
.	.	4G	4B-	.
.	.	4F	4A	2.a
.	.	4E	4G	.
.	1F	1D	2A	.
.	.	.	.	4g
.	.	.	2B-	[2f
=16	=16	=16	=16	=16
1C	1G	2C	1c	2f]
.	.	2.c	.	2e
1FF	1A	.	2r	1f
.	.	4B-	.	.
.	.	2A	2f	.
=17	=17	=17	=17	=17
1GG	1B-	2.G	2e	0r
.	.	.	1d	.
.	.	4F	.	.
1AA	1A	1E	.	.
.	.	.	2c	.
=18	=18	=18	=18	=18
2BB-	4G	2D	2d	1r
.	4F	.	.	.
2AA	1F	2F	2c	.
1GG	.	1G	1B-	1g
.	2E	.	.	.
=19	=19	=19	=19	=19
1FF	1F	1A	2A	1c
.	.	.	1c	.
1r	2r	1G	.	1d
.	[2G	.	2B	.
=20	=20	=20	=20	=20
0r	2G]	2C	1c	1e
.	2C	2c	.	.
.	2D	2F	1r	2f
.	2E	2G	.	2e
=21	=21	=21	=21	=21
0r	2F	2A	2r	1d
.	2G	2B-	1g	.
.	2E	2G	.	2e
.	[2F	[2A	2c	2cc
=22	=22	=22	=22	=22
1r	2F]	2A]	2d	2f
.	2E	2G	2e	2g
2r	1D	2F	[1f	1a
2F	.	2A	.	.
=23	=23	=23	=23	=23
2BB-	2r	2d	2f]	2b-
2C	2c	4c	2e	2g
.	.	4B-	.	.
1D	1F	2A	1d	4f
.	.	.	.	4g
.	.	2D	.	4a
.	.	.	.	4b-
=24	=24	=24	=24	=24
1E-	1G	2G	2B-	1g
.	.	2C	2c	.
1D	1A	2.F	[1d	2f
.	.	.	.	2a
.	.	4E	.	.
=25	=25	=25	=25	=25
1BB-	2.B-	4D	1d]	2g
.	.	4C	.	.
.	.	2D	.	1f
.	4A	.	.	.
2.C	1G	4E	1c	.
.	.	4C	.	.
.	.	[2c	.	2e
4BB-	.	.	.	.
=26	=26	=26	=26	=26
2AA	1F	2c]	2r	0f
1BB-	.	1d	2F	.
.	2r	.	4F	.
.	.	.	4G	.
4AA	2F	4c	4A	.
4GG	.	4B-	4B-	.
=27	=27	=27	=27	=27
1FF	4F	1A	2.c	2r
.	4G	.	.	.
.	4A	.	.	2cc
.	4B-	.	4d	.
1r	2c	1r	2e	4cc
.	.	.	.	4b-
.	[2d	.	2f	4a
.	.	.	.	4g
=28	=28	=28	=28	=28
0r	2d]	0r	2d	2f
.	2c	.	2.e	2e
.	2B-	.	.	2f
.	.	.	4d	.
.	2G	.	[2d	2g
=29	=29	=29	=29	=29
1r	1A	2r	2d]	1e
.	.	2A	2c#	.
2r	1D	4A	1d	2d
.	.	4G	.	.
2BB-	.	4F	.	2f
.	.	4E	.	.
=30	=30	=30	=30	=30
4BB-	0r	2D	2r	4f
4C	.	.	.	4e
4D	.	2d	2f	4f
4E	.	.	.	4g
2F	.	2c	4f	2a
.	.	.	4e	.
[2G	.	2B-	4d	2b-
.	.	.	4c	.
=31	=31	=31	=31	=31
2G]	0r	1d	2B-	2g
2F	.	.	2A	1a
2E-	.	1e-	2B-	.
2C	.	.	2c	[2g
=32	=32	=32	=32	=32
1D	2r	0d	1A	2g]
.	1D	.	.	2f#
2.GG	.	.	2r	1g
.	2G	.	2B-	.
4AA	.	.	.	.
=33	=33	=33	=33	=33
1BB-	2F	2r	4B-	1d
.	.	.	4c	.
.	2D	2F	4d	.
.	.	.	4e	.
1FF	1A	4F	1f	2r
.	.	4G	.	.
.	.	4A	.	2c
.	.	4B-	.	.
=34	=34	=34	=34	=34
0r	2A	2c	1.e	4c
.	.	.	.	4d
.	2c	2C	.	4e
.	.	.	.	4f
.	4c	2E	.	2g
.	4B-	.	.	.
.	4A	4F	2c	[2a
.	4G	4G	.	.
=35	=35	=35	=35	=35
0r	2F	4A	1c	2a]
.	.	4B-	.	.
.	2E	1c	.	2g
.	2F	.	2r	2f
.	2G	2B	2g	2d
=36	=36	=36	=36	=36
2C	4E	1c	4g	1e
.	8F	.	4f	.
.	8G	.	.	.
4C	2A	.	4e	.
4D	.	.	4d	.
4E	1G	1r	2c	[1g
4F	.	.	.	.
2G	.	.	2B	.
=37	=37	=37	=37	=37
2E	0r	0r	2c	2g]
2D	.	.	2.d	2f
2.A	.	.	.	2e
.	.	.	4c	.
.	.	.	[2c	2c
4G	.	.	.	.
=38	=38	=38	=38	=38
2F	0r	1r	2c]	1d
2G	.	.	2B	.
1A	.	2r	1c	1c
.	.	2F	.	.
=39	=39	=39	=39	=39
2r	2c	4F	1.A	0r
.	.	4G	.	.
2F	4c	4A	.	.
.	4B-	4B-	.	.
4F	4A	2c	.	.
4E	4G	.	.	.
4D	4F	[2d	2A	.
4C	4E	.	.	.
=40	=40	=40	=40	=40
2BB-	2D	2d]	2B-	1r
2AA	1F	2c	2c	.
2BB-	.	2B-	2d	2r
2C	2E	2G	2c	2cc
=41	=41	=41	=41	=41
2.FF	1F	1A	2r	4cc
.	.	.	.	4b-
.	.	.	2c	4a
4GG	.	.	.	4g
4AA	1C	[1c	2A	2f
4BB-	.	.	.	.
2C	.	.	2G	2e
=42	=42	=42	=42	=42
2AA	2r	2c]	2A	2f
2GG	2D	2B-	1d	2.g
2D	2F	2A	.	.
.	.	.	.	4f
2F	2A	2F	[2c	[2f
=43	=43	=43	=43	=43
0C	2G	0G	4c]	2f]
.	.	.	8B-	.
.	.	.	8A	.
.	2.c	.	2G	4e
.	.	.	.	4d
.	.	.	1c	1e
.	8B-	.	.	.
.	8A	.	.	.
.	2G	.	.	.
=44	=44	=44	=44	=44
0FF	0A	0F	0c	0f
==	==	==	==	==
*-	*-	*-	*-	*-
!!!CDT: 1525/^1526/-1594/2/2
!!!OCY: Italia
!!!AGN: Mass (Paraphrase)
!!!AST: renaissance, vocal
!!!ASW: Antiphon
!!!PWK: Masses, Book 12
!!!RNB: Cadence finals: C
!!!YOR: Le Opere Complete, v. 29, p. 1
!!!YOO: Rome, Italy: Fratelli Scalera
!!!END: 1992//
!!!EED: John Miller
!!!YEC: Copyright 2000, John Miller
!!!YEN: United States of America
!!!YEM: Rights to all derivative electronic formats reserved.
!!!YEM: Refer to licensing agreement for further details.
!!!YEM: This file must be accompanied by the licensing agreement.
!!!YEM: A copy of the licensing agreement may be found at http://www.music-cog.ohio-state.edu/HumdrumDatabases/Palestrina/license.txt
!!!EMD: converted to Humdrum by Bret Aarden
